X: 1
T: The Four-Leafed Shamrock
R: reel
M: 4/4
L: 1/8
K: Dmaj
|:e|fd~d2 edBc|d2ec dBAF|DEFB ABdA|e2df edBd|
fd~d2 edBc|dAec dBAF|DEFB ABdA|~e3f d3:|
|:B|Ad~d2 dafa|bfaf efdB|BAFB ABdf|eB~B2 egfe|
dBAB defa|bfaf efdB|DEFB ABdf|edef d3:|

composer: Paddy O'Brien
